src/pos-icons/iframe-variable.svg

<svg height="24" viewBox="0 0 24 24" width="24" xmlns="http://www.w3.org/2000/svg"><path d="m21 2h-18c-1.1 0-2 .9-2 2v16c0 1.1.9 2 2 2h18c1.1 0 2-.9 2-2v-16c0-1.1-.9-2-2-2m-13.6 18c-1.5-1.4-2.4-3.4-2.4-5.5s.9-4.1 2.4-5.5l1.6.6c-1.3 1.1-2 3-2 4.9s.7 3.7 2 4.9zm5.3-2-.8-2-1.4 2h-1.5l2.3-3.1-1.3-2.9h1.3l.8 2 1.4-2h1.5l-2.2 3 1.3 3zm3.9 2-1.6-.6c1.3-1.2 2-3 2-4.9s-.7-3.7-2-4.9l1.6-.6c1.5 1.4 2.4 3.4 2.4 5.5s-.9 4.1-2.4 5.5m4.4-13h-18v-3h18z"/></svg>

<?xml version="1.0" encoding="UTF-8"?><!DOCTYPE svg PUBLIC "-//W3C//DTD SVG 1.1//EN" "http://www.w3.org/Graphics/SVG/1.1/DTD/svg11.dtd"><svg xmlns="http://www.w3.org/2000/svg" xmlns:xlink="http://www.w3.org/1999/xlink" version="1.1" id="mdi-iframe-variable" width="24" height="24" viewBox="0 0 24 24"><path d="M21 2H3C1.9 2 1 2.9 1 4V20C1 21.1 1.9 22 3 22H21C22.1 22 23 21.1 23 20V4C23 2.9 22.1 2 21 2M7.4 20C5.9 18.6 5 16.6 5 14.5S5.9 10.4 7.4 9L9 9.6C7.7 10.7 7 12.6 7 14.5S7.7 18.2 9 19.4L7.4 20M12.7 18L11.9 16L10.5 18H9L11.3 14.9L10 12H11.3L12.1 14L13.5 12H15L12.8 15L14.1 18H12.7M16.6 20L15 19.4C16.3 18.2 17 16.4 17 14.5S16.3 10.8 15 9.6L16.6 9C18.1 10.4 19 12.4 19 14.5C19 16.6 18.1 18.6 16.6 20M21 7H3V4H21V7Z" /></svg>
